X:59
T:Tahtisilma valssi
M:3/4
Q:1/4=160
C:Konsta Jylha
R:waltz
K:Dm
|: "A7" A2 | "Dm" aAaA a2 | "Gm" g4 A2 | "Dm" fAfA f2 | "A7" e4 A2 |
"Dm" d2 A2 F2 | "C" c4 c2 | "C7" B2 G2 E2 | "F" A4 A2 | !
"Dm" D2 F2 A2 | d2 e2 f2 | "Gm" e6 | "Dm" d6 |
"C" c3 c cd | e2 d2 c2 | "C7" B6 | "F" A6 | !
"Gm" G2 B2 d2 | ga b2 a2 | g6 | "Dm" f6 |
"E7" e3 e e2 | e2 f2 e2 | "A7" (a6 | a)b ag fe |!
"Gm" gBgB g2 | "Dm" f4 A2 | "A7" eGeG e2 | "Bb" d4 A2 |
"Gm" G2 c2 (3BcB | "A7" A4 A2 | B2 G2 E2 | "Dm fine" D4 :| !
K:D
|: "A7" A2 | "D" d6 | d2 cded | "A7" c6 | "G" B6 |
B6 | B2 "A7" cdcB | "D" A6 | "Bm" F6 | !
"Em" (B6 | B2) G2 F2 | "A7" G4 F2 | E6 |
(c6 | c2) d2 e2 | "D" (A6 | "A7" A2) B2 c2 | !
"D" d6 | d2 cded | "A7" c6 | "G" B6 |
B6 | B2 "A7" c2 d2 | "D" A6 | "Bm" F4 (3FGF | !
"Em" E3 F GE | B6 | "D" A3 F Ad | "Bm" f4 (3fgf |
"Em" ef g2 (3fgf | "A7" e3 d c2 | "D" d3 d d2 | "D.C. al fine" d4 :||
